src/icons/verdaccio.svg

<svg viewBox="0 0 24 24" xmlns="http://www.w3.org/2000/svg">
  <path
    d="M18.1991 10.237H13.7511L11.9241 13.891L7.11206 4.26697H2.66406L10.6241 20.187H13.2241L18.1991 10.237Z"
    fill="#00897B"
  />
  <path
    d="M14.8452 3.81299V4.51299H16.6122L16.1962 5.33799H13.4232V6.03799H15.8432L15.2972 7.12299H12.0332V7.82299H15.5592L19.3252 7.83999L21.3352 3.82199L20.2352 3.81899V3.81299H14.8452Z"
    fill="#00897B"
  />
</svg>

<svg viewBox="0 0 24 24" xmlns="http://www.w3.org/2000/svg"><path d="M18.2 10.237h-4.448l-1.827 3.654-4.812-9.624H2.665l7.96 15.92h2.6z" clip-rule="evenodd" fill="#00897b" fill-rule="evenodd"/><path d="M14.845 3.813v.7h1.767l-.416.825h-2.773v.7h2.42l-.546 1.085h-3.264v.7h3.526l3.766.017 2.01-4.018-1.1-.003v-.006z" fill="#e57373"/></svg>
